X: 3225
M: 6/8
L: 1/8
K: A
|:\
vc2vA uB2uA | c2A B2A |\
[1 FBB BAB | FBB BAB :|\
[2 DAA AGA | EAA A2 |:\
d |\
cde Bcd | cde B2A |\
cde Bcd | "^2nd"efg a2x & cde B2A |\
EAA AGA | EAA A2 :|


